icons/1_Primary/Sentry.svg

<svg width="1024" height="1024" fill="none" xmlns="http://www.w3.org/2000/svg"><g clip-path="url(#a)"><path d="M512 1024c282.77 0 512-229.23 512-512S794.77 0 512 0 0 229.23 0 512s229.23 512 512 512Z" fill="#BD9AFF"/><path d="M552.74 279.17a47.874 47.874 0 0 0-41-23.161 47.87 47.87 0 0 0-41 23.161L403.29 394.7A330.168 330.168 0 0 1 585.23 668h-47.35A283.729 283.729 0 0 0 379.4 435.08L317 543a163.187 163.187 0 0 1 94.61 124.75H302.83a7.803 7.803 0 0 1-3.631-1.194 7.79 7.79 0 0 1-2.729-10.186l30.14-51.25a110.087 110.087 0 0 0-34.44-19.48l-29.83 51.25a46.54 46.54 0 0 0 16.76 63.64l.56.32a47.777 47.777 0 0 0 23.17 6.15h148.94a198.865 198.865 0 0 0-82-177.44l23.68-41A244.675 244.675 0 0 1 499 707h126.21A367.785 367.785 0 0 0 457 381.06l47.87-82a7.886 7.886 0 0 1 10.76-2.77c5.43 3 208 356.41 211.78 360.51a7.787 7.787 0 0 1-7 11.58h-48.77a414.83 414.83 0 0 1 0 39.05h49a47.008 47.008 0 0 0 43.671-28.744A46.993 46.993 0 0 0 768 660.7v-.51a45.99 45.99 0 0 0-6.36-23.37l-208.9-357.65Z" fill="#fff"/></g><defs><clipPath id="a"><path fill="#fff" d="M0 0h1024v1024H0z"/></clipPath></defs></svg>

<svg width="1024" height="1024" viewBox="0 0 1024 1024" fill="none" xmlns="http://www.w3.org/2000/svg">
<g clip-path="url(#clip0_2_3444)">
<path d="M512 1024C794.77 1024 1024 794.77 1024 512C1024 229.23 794.77 0 512 0C229.23 0 0 229.23 0 512C0 794.77 229.23 1024 512 1024Z" fill="#BD9AFF"/>
<path d="M552.74 279.17C548.481 272.103 542.468 266.257 535.285 262.199C528.101 258.141 519.991 256.009 511.74 256.009C503.489 256.009 495.379 258.141 488.195 262.199C481.012 266.257 474.999 272.103 470.74 279.17L403.29 394.7C454.819 420.428 498.722 459.188 530.639 507.132C562.555 555.075 581.375 610.533 585.23 668H537.88C534.033 618.737 517.387 571.333 489.591 530.481C461.794 489.628 423.811 456.742 379.4 435.08L317 543C341.963 554.196 363.711 571.489 380.243 593.288C396.775 615.087 407.561 640.692 411.61 667.75H302.83C301.539 667.659 300.292 667.249 299.199 666.556C298.107 665.863 297.205 664.908 296.573 663.779C295.942 662.65 295.602 661.381 295.584 660.088C295.566 658.794 295.871 657.516 296.47 656.37L326.61 605.12C316.401 596.6 304.732 590 292.17 585.64L262.34 636.89C256.125 647.552 254.399 660.246 257.542 672.18C260.685 684.115 268.439 694.312 279.1 700.53L279.66 700.85C286.735 704.836 294.709 706.952 302.83 707H451.77C454.537 672.866 448.443 638.596 434.077 607.509C419.71 576.422 397.56 549.572 369.77 529.56L393.45 488.56C428.516 512.651 456.694 545.47 475.204 583.777C493.714 622.084 501.916 664.555 499 707H625.21C628.144 642.703 614.153 578.761 584.635 521.565C555.117 464.369 511.106 415.92 457 381.06L504.87 299.06C505.936 297.272 507.664 295.978 509.68 295.46C511.695 294.941 513.834 295.239 515.63 296.29C521.06 299.29 723.63 652.7 727.41 656.8C728.079 658 728.419 659.356 728.394 660.729C728.37 662.103 727.983 663.446 727.272 664.622C726.561 665.798 725.552 666.765 724.347 667.425C723.142 668.085 721.784 668.414 720.41 668.38H671.64C672.253 681.433 672.253 694.45 671.64 707.43H720.64C726.82 707.477 732.948 706.305 738.674 703.982C744.401 701.658 749.613 698.227 754.012 693.887C758.411 689.546 761.91 684.381 764.311 678.686C766.711 672.992 767.965 666.88 768 660.7V660.19C768.006 651.971 765.81 643.902 761.64 636.82L552.74 279.17Z" fill="white"/>
</g>
<defs>
<clipPath id="clip0_2_3444">
<rect width="1024" height="1024" fill="white"/>
</clipPath>
</defs>
</svg>
